X: 29831
T: O'Connor's Fancy
R: hornpipe
M: 4/4
K: Dmajor
|:AG|FA~D3FED|CDEF Gz FE|FABc dABG|F2E2Ez AG|
FA~D3FED|CDEF Gz FE|FABc dABG|F2D2Dz:|
|:c2|dAFA dfed|edcd efge|fdec dfed|c2A2Az dc|
BAGA dfed|edcA Bz fe|defd ecAG|F2D2D2:|

